img/logo-twitter-12.svg

<svg fill="none" height="32" viewBox="0 0 33 32" width="33" xmlns="http://www.w3.org/2000/svg" xmlns:xlink="http://www.w3.org/1999/xlink"><clipPath id="a"><path d="m.773438 0h32v32h-32z"/></clipPath><g clip-path="url(#a)"><path d="m29.5556 9.45659c.0193.28.0193.56001.0193.84261 0 8.6103-6.5548 18.5406-18.5406 18.5406v-.0051c-3.54066.0051-7.00776-1.0091-9.9884-2.9213.51484.0619 1.03226.0929 1.55097.0942 2.93419.0025 5.78451-.982 8.09293-2.7949-2.78842-.0529-5.23358-1.8709-6.08777-4.5251.97677.1883 1.98322.1496 2.94193-.1123-3.04-.6142-5.22709-3.2852-5.22709-6.3871v-.0826c.9058.5045 1.92.7845 2.95742.8155-2.86323-1.9135-3.74581-5.72257-2.01678-8.70064 3.30839 4.07097 8.18969 6.54584 13.42969 6.80774-.5252-2.26322.1922-4.63483 1.8851-6.2258 2.6246-2.4671 6.7523-2.34065 9.2194.28258 1.4594-.28774 2.8581-.82323 4.1381-1.58194-.4865 1.50839-1.5045 2.78968-2.8645 3.60388 1.2916-.15226 2.5535-.49807 3.7419-1.02581-.8749 1.31097-1.9768 2.4529-3.2516 3.37548z" fill="#fff"/></g></svg>

<svg width="33" height="32" viewBox="0 0 33 32" fill="none" xmlns="http://www.w3.org/2000/svg">
<g clip-path="url(#clip0_3470_10724)">
<path d="M29.5556 9.45659C29.5749 9.73659 29.5749 10.0166 29.5749 10.2992C29.5749 18.9095 23.0201 28.8398 11.0343 28.8398V28.8347C7.49364 28.8398 4.02654 27.8256 1.0459 25.9134C1.56074 25.9753 2.07816 26.0063 2.59687 26.0076C5.53106 26.0101 8.38138 25.0256 10.6898 23.2127C7.90138 23.1598 5.45622 21.3418 4.60203 18.6876C5.5788 18.8759 6.58525 18.8372 7.54396 18.5753C4.50396 17.9611 2.31687 15.2901 2.31687 12.1882V12.1056C3.22267 12.6101 4.23687 12.8901 5.27429 12.9211C2.41106 11.0076 1.52848 7.19853 3.25751 4.22046C6.5659 8.29143 11.4472 10.7663 16.6872 11.0282C16.162 8.76498 16.8794 6.39337 18.5723 4.8024C21.1969 2.3353 25.3246 2.46175 27.7917 5.08498C29.2511 4.79724 30.6498 4.26175 31.9298 3.50304C31.4433 5.01143 30.4253 6.29272 29.0653 7.10692C30.3569 6.95466 31.6188 6.60885 32.8072 6.08111C31.9323 7.39208 30.8304 8.53401 29.5556 9.45659Z" fill="white"/>
</g>
<defs>
<clipPath id="clip0_3470_10724">
<rect width="32" height="32" fill="white" transform="translate(0.773438)"/>
</clipPath>
</defs>
</svg>
